icons/flow.svg

<?xml version="1.0" encoding="UTF-8" standalone="no"?>
<svg width="256px" height="317px" viewBox="0 0 256 317" version="1.1" xmlns="http://www.w3.org/2000/svg" xmlns:xlink="http://www.w3.org/1999/xlink" preserveAspectRatio="xMidYMid">
    <defs>
        <linearGradient x1="16.1074159%" y1="58.1870482%" x2="72.7087331%" y2="72.8896084%" id="linearGradient-1">
            <stop stop-color="#FFD441" offset="0%"></stop>
            <stop stop-color="#FFB047" offset="100%"></stop>
        </linearGradient>
        <linearGradient x1="70.2130942%" y1="65.7967809%" x2="100%" y2="0%" id="linearGradient-2">
            <stop stop-color="#FFD754" offset="0%"></stop>
            <stop stop-color="#FFB532" offset="100%"></stop>
        </linearGradient>
        <linearGradient x1="22.1778859%" y1="66.1379895%" x2="22.1778855%" y2="9.31617093%" id="linearGradient-3">
            <stop stop-color="#FFD642" offset="0%"></stop>
            <stop stop-color="#FFD441" offset="0%"></stop>
            <stop stop-color="#FFB532" offset="100%"></stop>
        </linearGradient>
        <linearGradient x1="88.9529566%" y1="24.2984871%" x2="12.5786107%" y2="6.96628778%" id="linearGradient-4">
            <stop stop-color="#FFD441" offset="0%"></stop>
            <stop stop-color="#FFA829" offset="100%"></stop>
        </linearGradient>
    </defs>
	<g>
		<path d="M211.6896,309.978667 L211.6896,228.120533 L130.488533,228.120533 L211.6896,309.978667" fill-opacity="0.7" fill="#FFDF51"></path>
		<path d="M220.801067,263.565867 L220.801067,175.032533 L132.9792,175.032533 L220.801067,263.565867" fill-opacity="0.7" fill="#FF8900"></path>
		<path d="M167.466667,228.1184 L167.466667,316.651733 L255.288533,316.651733 L167.466667,228.1184" fill-opacity="0.699999988" fill="url(#linearGradient-1)"></path>
		<path d="M202.443733,180.962133 L202.443733,110.935467 L132.977067,110.935467 L202.443733,180.962133" fill-opacity="0.7" fill="#FFDF4F"></path>
		<path d="M235.424,164.266667 L235.424,75.7333333 L147.602133,75.7333333 L235.424,164.266667" fill-opacity="0.799999952" fill="url(#linearGradient-2)"></path>
		<path d="M85.7354667,0 L85.7354667,88.5333333 L173.557333,88.5333333 L85.7354667,0" fill-opacity="0.8" fill="url(#linearGradient-3)"></path>
		<path d="M106.333867,138.666667 L106.333867,50.1333333 L0.135466667,50.1333333 L87.5776,138.6848 L106.333867,138.666667" fill-opacity="0.879999995" fill="url(#linearGradient-4)"></path>
		<path d="M106.333867,316.174933 L106.333867,209.066667 L0.135466667,209.066667 L106.333867,316.174933" fill-opacity="0.7" fill="#FFB700"></path>
		<path d="M106.357333,227.466667 L106.357333,138.933333 L18.5354667,138.933333 L106.357333,227.466667" fill-opacity="0.5" fill="#FFB700"></path>
		<path d="M132.976,110.933333 L132.976,199.466667 L220.798933,199.466667 L132.976,110.933333" fill-opacity="0.7" fill="#FFCD25"></path>
		<path d="M106.135467,120.8992 L106.135467,32.3658667 L18.3125333,32.3658667 L106.135467,120.8992" fill-opacity="0.700000048" fill="#FF8900"></path>
		<path d="M130.488533,228.1184 L130.488533,316.651733 L218.311467,316.651733 L130.488533,228.1184" fill-opacity="0.7" fill="#FF8900"></path>
	</g>
</svg>

<svg xmlns="http://www.w3.org/2000/svg" viewBox="0 0 255.153 316.652">
  <defs>
    <linearGradient id="a" x1="182.347" x2="232.256" y1="278.507" y2="291.472" gradientTransform="scale(.99597 1.00404)" gradientUnits="userSpaceOnUse">
      <stop offset="0%" stop-color="#FFD441"/>
      <stop offset="100%" stop-color="#FFB047"/>
    </linearGradient>
    <linearGradient id="b" x1="210.111" x2="236.376" y1="133.446" y2="75.428" gradientTransform="scale(.99597 1.00404)" gradientUnits="userSpaceOnUse">
      <stop offset="0%" stop-color="#FFD754"/>
      <stop offset="100%" stop-color="#FFB532"/>
    </linearGradient>
    <linearGradient id="c" x1="105.638" x2="105.638" y1="58.318" y2="8.215" gradientTransform="scale(.99597 1.00404)" gradientUnits="userSpaceOnUse">
      <stop offset="0%" stop-color="#FFD642"/>
      <stop offset="0%" stop-color="#FFD441"/>
      <stop offset="100%" stop-color="#FFB532"/>
    </linearGradient>
    <linearGradient id="d" x1="86.385" x2="12.322" y1="78.465" y2="61.657" gradientTransform="scale(1.09512 .91314)" gradientUnits="userSpaceOnUse">
      <stop offset="0%" stop-color="#FFD441"/>
      <stop offset="100%" stop-color="#FFA829"/>
    </linearGradient>
  </defs>
  <path fill="#ffdf51" fill-opacity=".7" d="M211.554 309.979V228.12h-81.2l81.2 81.858"/>
  <path fill="#ff8900" fill-opacity=".7" d="M220.666 263.566v-88.533h-87.822l87.822 88.533"/>
  <path fill="url(#a)" fill-opacity=".7" d="M167.467 228.118v88.534h87.822l-87.822-88.534" style="fill:url(#a)" transform="translate(-.135)"/>
  <path fill="#ffdf4f" fill-opacity=".7" d="M202.308 180.962v-70.027h-69.466l69.466 70.027"/>
  <path fill="url(#b)" fill-opacity=".8" d="M235.424 164.267V75.733h-87.822l87.822 88.534" style="fill:url(#b)" transform="translate(-.135)"/>
  <path fill="url(#c)" fill-opacity=".8" d="M85.735 0v88.533h87.822L85.735 0" style="fill:url(#c)" transform="translate(-.135)"/>
  <path fill="url(#d)" fill-opacity=".88" d="M106.334 138.667V50.133H.135l87.443 88.552 18.756-.018" style="fill:url(#d)" transform="translate(-.135)"/>
  <path fill="#ffb700" fill-opacity=".7" d="M106.198 316.175V209.067H0l106.198 107.108"/>
  <path fill="#ffb700" fill-opacity=".5" d="M106.222 227.467v-88.534H18.4l87.822 88.534"/>
  <path fill="#ffcd25" fill-opacity=".7" d="M132.84 110.933v88.534h87.823l-87.822-88.534"/>
  <path fill="#ff8900" fill-opacity=".7" d="M106 120.9V32.365H18.177L106 120.899M130.353 228.118v88.534h87.823l-87.823-88.534"/>
</svg>
